packages/bpk-svgs/src/icons/sm/payment-card.svg

<svg xmlns="http://www.w3.org/2000/svg" viewBox="0 0 18 18" enable-background="new 0 0 18 18"><path d="M15.1 4h-12.2c-1 0-1.9.9-1.9 1.9v7.2c0 1 .9 1.9 1.9 1.9h12.2c1.1 0 1.9-.9 1.9-1.9v-7.2c0-1-.9-1.9-1.9-1.9zm.9 9.1c0 .5-.4.9-.9.9h-12.2c-.5 0-.9-.4-.9-.9v-4.1h14v4.1zm-14-6.1v-1.1c0-.5.4-.9.9-.9h12.2c.5 0 .9.4.9.9v1.1h-14zm1 4h2v2h-2v-2z"/></svg>

<svg xmlns="http://www.w3.org/2000/svg" viewBox="0 0 18 18"><path d="M15.1 4H2.9C1.9 4 1 4.9 1 5.9v7.2c0 1 .9 1.9 1.9 1.9h12.2c1.1 0 1.9-.9 1.9-1.9V5.9c0-1-.9-1.9-1.9-1.9zm.9 9.1c0 .5-.4.9-.9.9H2.9c-.5 0-.9-.4-.9-.9V9h14v4.1zM2 7V5.9c0-.5.4-.9.9-.9h12.2c.5 0 .9.4.9.9V7H2zm1 4h2v2H3v-2z"/></svg>
